icons/lines/maximize.svg

<svg xmlns="http://www.w3.org/2000/svg" width="24" height="24" viewBox="0 0 24 24" fill="none" stroke="currentColor" stroke-width="2" stroke-linecap="round" stroke-linejoin="round">
  <path d="M11 18.85C11 21.1 10.1 22 7.85 22h-2.7C2.9 22 2 21.1 2 18.85v-2.7C2 13.9 2.9 13 5.15 13h2.7c2.25 0 3.15.9 3.15 3.15z" />
  <path d="m13 11 5.01-5.02H14" />
  <path d="M18.01 5.98v4.01" />
  <path d="M2 9.98V9c0-5 2-7 7-7h6c5 0 7 2 7 7v6c0 5-2 7-7 7h-1" />
</svg>

<svg xmlns="http://www.w3.org/2000/svg" width="24" height="24" viewBox="0 0 24 24" fill="none" stroke="currentColor" stroke-width="2" stroke-linecap="round" stroke-linejoin="round" >
  <path d="M2 9.98V9C2 4 4 2 9 2H15C20 2 22 4 22 9V15C22 20 20 22 15 22H14"/>
  <path d="M13 11L18.01 5.98001H14"/>
  <path d="M18.0098 5.98001V9.99001"/>
  <path d="M11 16.15V18.85C11 21.1 10.1 22 7.85 22H5.15C2.9 22 2 21.1 2 18.85V16.15C2 13.9 2.9 13 5.15 13H7.85C10.1 13 11 13.9 11 16.15Z"/>
  </svg>
